X: 26775
T: Miller O' Hirn, The
R: strathspey
M: 4/4
K: Dmajor
D2 d>B A<F E>D|B,2 E>D B<D A,>B,|D2 d>B A<F E>D|1 B,>D C>E F<D D>C:|2 B,>D C>E F<D D>B||
|:A<F F>A B<G G>A|G<E E>d c<A A>B|A<F F>A B<G G>A|(3Bcd (3efg f<d d>B|
A<F F>A B<G G>A|G<E E>d c<A A>c|(3dAB (3cde (3fde (3fga|(3bag (3fed (3cBA (3GFE||

